X:110
T: Schnste von allen (2-12) S. 43
N: P0885
O: Lothringen
S: PINCK, Louis: Verklingende Weisen, Bd 2, Metz 1928]
R: geistliche, religiöse Lieder]
M: 2/4
L: 1/16
K: G
D2 | D4E2F2 | G4G2
G2 | F2G2A2F2 | D6
D2 | c4c2c2 | B4B2
BB | A2B2c2A2 | G6
G2 | d4d2d2 | c4c2
c2 | B2c2d2B2 | A6
A2 | c4c2c2 | B4B2
B2 | A2B2c2A2 | G6

